report_00007_2020-12-11T15:55:29.892Z/uses-long-cache-ttl/comparison/sorted/12_vs_13.svg

<svg width="640" height="500" xmlns="http://www.w3.org/2000/svg" xmlns:xlink="http://www.w3.org/1999/xlink"><path fill="#fff" d="M0 0h640v500H0z"/><defs><path id="d" stroke-width=".222" stroke="currentColor" d="M-1-1h2v2h-2z"/><path id="b" stroke-width=".222" stroke="currentColor" d="M0-1.33l-1.33 2h2.66z"/><path id="f" stroke-width=".222" stroke="currentColor" d="M0 1.33L1.265.411.782-1.067l-1.564-.009-.483 1.487z"/><use xlink:href="#b" id="c" stroke="currentColor" transform="rotate(180)"/><use xlink:href="#d" id="e" stroke="currentColor" transform="rotate(45)"/><circle id="a" stroke-width=".222" stroke="currentColor" cx="0" cy="0" r="1"/></defs><g fill="none" color="#000" stroke="currentColor"><path stroke="#000" d="M62.2 379.8h9m543.8 0h-9"/><text transform="translate(53.9 383.7)" stroke="none" fill="#000" font-family="Arial" font-size="12" text-anchor="end"><tspan>1000</tspan></text></g><g fill="none" color="#000" stroke="currentColor"><path stroke="#000" d="M62.2 337.7h9m543.8 0h-9"/><text transform="translate(53.9 341.6)" stroke="none" fill="#000" font-family="Arial" font-size="12" text-anchor="end"><tspan>1200</tspan></text></g><g fill="none" color="#000" stroke="currentColor"><path stroke="#000" d="M62.2 295.6h9m543.8 0h-9"/><text transform="translate(53.9 299.5)" stroke="none" fill="#000" font-family="Arial" font-size="12" text-anchor="end"><tspan>1400</tspan></text></g><g fill="none" color="#000" stroke="currentColor"><path stroke="#000" d="M62.2 253.5h9m543.8 0h-9"/><text transform="translate(53.9 257.4)" stroke="none" fill="#000" font-family="Arial" font-size="12" text-anchor="end"><tspan>1600</tspan></text></g><g fill="none" color="#000" stroke="currentColor"><path stroke="#000" d="M62.2 211.4h9m543.8 0h-9"/><text transform="translate(53.9 215.3)" stroke="none" fill="#000" font-family="Arial" font-size="12" text-anchor="end"><tspan>1800</tspan></text></g><g fill="none" color="#000" stroke="currentColor"><path stroke="#000" d="M62.2 169.3h9m543.8 0h-9"/><text transform="translate(53.9 173.2)" stroke="none" fill="#000" font-family="Arial" font-size="12" text-anchor="end"><tspan>2000</tspan></text></g><g fill="none" color="#000" stroke="currentColor"><path stroke="#000" d="M62.2 127.2h9m543.8 0h-9"/><text transform="translate(53.9 131.1)" stroke="none" fill="#000" font-family="Arial" font-size="12" text-anchor="end"><tspan>2200</tspan></text></g><g fill="none" color="#000" stroke="currentColor"><path stroke="#000" d="M62.2 85.1h9m543.8 0h-9"/><text transform="translate(53.9 89)" stroke="none" fill="#000" font-family="Arial" font-size="12" text-anchor="end"><tspan>2400</tspan></text></g><g fill="none" color="#000" stroke="currentColor"><path stroke="#000" d="M62.2 43h9M615 43h-9"/><text transform="translate(53.9 46.9)" stroke="none" fill="#000" font-family="Arial" font-size="12" text-anchor="end"><tspan>2600</tspan></text></g><g fill="none" color="#000" stroke="currentColor"><path stroke="#000" d="M62.2 392v-9m0-364.9v9"/><text transform="translate(62.2 413.9)" stroke="none" fill="#000" font-family="Arial" font-size="12" text-anchor="middle"><tspan>0</tspan></text></g><g fill="none" color="#000" stroke="currentColor"><path stroke="#000" d="M118 392v-9m0-364.9v9"/><text transform="translate(118 413.9)" stroke="none" fill="#000" font-family="Arial" font-size="12" text-anchor="middle"><tspan>10</tspan></text></g><g fill="none" color="#000" stroke="currentColor"><path stroke="#000" d="M173.9 392v-9m0-364.9v9"/><text transform="translate(173.9 413.9)" stroke="none" fill="#000" font-family="Arial" font-size="12" text-anchor="middle"><tspan>20</tspan></text></g><g fill="none" color="#000" stroke="currentColor"><path stroke="#000" d="M229.7 392v-9m0-364.9v9"/><text transform="translate(229.7 413.9)" stroke="none" fill="#000" font-family="Arial" font-size="12" text-anchor="middle"><tspan>30</tspan></text></g><g fill="none" color="#000" stroke="currentColor"><path stroke="#000" d="M285.6 392v-9m0-364.9v9"/><text transform="translate(285.6 413.9)" stroke="none" fill="#000" font-family="Arial" font-size="12" text-anchor="middle"><tspan>40</tspan></text></g><g fill="none" color="#000" stroke="currentColor"><path stroke="#000" d="M341.4 392v-9m0-364.9v9"/><text transform="translate(341.4 413.9)" stroke="none" fill="#000" font-family="Arial" font-size="12" text-anchor="middle"><tspan>50</tspan></text></g><g fill="none" color="#000" stroke="currentColor"><path stroke="#000" d="M397.2 392v-9m0-364.9v9"/><text transform="translate(397.2 413.9)" stroke="none" fill="#000" font-family="Arial" font-size="12" text-anchor="middle"><tspan>60</tspan></text></g><g fill="none" color="#000" stroke="currentColor"><path stroke="#000" d="M453.1 392v-9m0-364.9v9"/><text transform="translate(453.1 413.9)" stroke="none" fill="#000" font-family="Arial" font-size="12" text-anchor="middle"><tspan>70</tspan></text></g><g fill="none" color="#000" stroke="currentColor"><path stroke="#000" d="M508.9 392v-9m0-364.9v9"/><text transform="translate(508.9 413.9)" stroke="none" fill="#000" font-family="Arial" font-size="12" text-anchor="middle"><tspan>80</tspan></text></g><g fill="none" color="#000" stroke="currentColor"><path stroke="#000" d="M564.7 392v-9m0-364.9v9"/><text transform="translate(564.7 413.9)" stroke="none" fill="#000" font-family="Arial" font-size="12" text-anchor="middle"><tspan>90</tspan></text></g><path stroke="#000" d="M62.2 18.1V392H615V18.1H62.2z" fill="none" color="#000"/><text transform="translate(533.3 431.9)" stroke="none" fill="#000" font-family="Arial" font-size="12" text-anchor="end" color="#000"><tspan>pages+cached+noexternal+nofonts+nosvg+noimg+nocss</tspan></text><path stroke="#9400D3" d="M541.6 428h42.2M62.2 25.3H615" fill="none" color="#000"/><text transform="translate(533.3 449.9)" stroke="none" fill="#000" font-family="Arial" font-size="12" text-anchor="end" color="#000"><tspan>pages+cached+noexternal+nofonts+nosvg+noimg+nocss+nojs</tspan></text><path stroke="#009E73" d="M541.6 446h42.2M62.2 384.8H615" fill="none" color="#000"/><text transform="translate(533.3 467.9)" stroke="none" fill="#000" font-family="Arial" font-size="12" text-anchor="end" color="#000"><tspan>score p10=28672</tspan></text><path stroke="#56B4E9" d="M541.6 464h42.2" fill="none" color="#000"/><g><text transform="translate(533.3 485.9)" stroke="none" fill="#000" font-family="Arial" font-size="12" text-anchor="end" color="#000"><tspan>score median=131072</tspan></text><path stroke="#E69F00" d="M541.6 482h42.2" fill="none" color="#000"/></g><g fill="none" color="#000" stroke="currentColor"><path stroke="#000" d="M62.2 18.1V392H615V18.1H62.2z"/></g></svg>

<?xml version="1.0" encoding="utf-8"  standalone="no"?>
<svg 
 width="640" height="500"
 viewBox="0 0 640 500"
 xmlns="http://www.w3.org/2000/svg"
 xmlns:xlink="http://www.w3.org/1999/xlink"
>

<title>Gnuplot</title>
<desc>Produced by GNUPLOT 5.4 patchlevel 0 </desc>

<g id="gnuplot_canvas">

<rect x="0" y="0" width="640" height="500" fill="#ffffff"/>
<defs>

	<circle id='gpDot' r='0.5' stroke-width='0.5' stroke='currentColor'/>
	<path id='gpPt0' stroke-width='0.222' stroke='currentColor' d='M-1,0 h2 M0,-1 v2'/>
	<path id='gpPt1' stroke-width='0.222' stroke='currentColor' d='M-1,-1 L1,1 M1,-1 L-1,1'/>
	<path id='gpPt2' stroke-width='0.222' stroke='currentColor' d='M-1,0 L1,0 M0,-1 L0,1 M-1,-1 L1,1 M-1,1 L1,-1'/>
	<rect id='gpPt3' stroke-width='0.222' stroke='currentColor' x='-1' y='-1' width='2' height='2'/>
	<rect id='gpPt4' stroke-width='0.222' stroke='currentColor' fill='currentColor' x='-1' y='-1' width='2' height='2'/>
	<circle id='gpPt5' stroke-width='0.222' stroke='currentColor' cx='0' cy='0' r='1'/>
	<use xlink:href='#gpPt5' id='gpPt6' fill='currentColor' stroke='none'/>
	<path id='gpPt7' stroke-width='0.222' stroke='currentColor' d='M0,-1.33 L-1.33,0.67 L1.33,0.67 z'/>
	<use xlink:href='#gpPt7' id='gpPt8' fill='currentColor' stroke='none'/>
	<use xlink:href='#gpPt7' id='gpPt9' stroke='currentColor' transform='rotate(180)'/>
	<use xlink:href='#gpPt9' id='gpPt10' fill='currentColor' stroke='none'/>
	<use xlink:href='#gpPt3' id='gpPt11' stroke='currentColor' transform='rotate(45)'/>
	<use xlink:href='#gpPt11' id='gpPt12' fill='currentColor' stroke='none'/>
	<path id='gpPt13' stroke-width='0.222' stroke='currentColor' d='M0,1.330 L1.265,0.411 L0.782,-1.067 L-0.782,-1.076 L-1.265,0.411 z'/>
	<use xlink:href='#gpPt13' id='gpPt14' fill='currentColor' stroke='none'/>
	<filter id='textbox' filterUnits='objectBoundingBox' x='0' y='0' height='1' width='1'>
	  <feFlood flood-color='#FFFFFF' flood-opacity='1' result='bgnd'/>
	  <feComposite in='SourceGraphic' in2='bgnd' operator='atop'/>
	</filter>
	<filter id='greybox' filterUnits='objectBoundingBox' x='0' y='0' height='1' width='1'>
	  <feFlood flood-color='lightgrey' flood-opacity='1' result='grey'/>
	  <feComposite in='SourceGraphic' in2='grey' operator='atop'/>
	</filter>
</defs>
<g fill="none" color="#FFFFFF" stroke="currentColor" stroke-width="1.00" stroke-linecap="butt" stroke-linejoin="miter">
</g>
<g fill="none" color="black" stroke="currentColor" stroke-width="1.00" stroke-linecap="butt" stroke-linejoin="miter">
	<path stroke='black'  d='M62.2,379.8 L71.2,379.8 M615.0,379.8 L606.0,379.8  '/>	<g transform="translate(53.9,383.7)" stroke="none" fill="black" font-family="Arial" font-size="12.00"  text-anchor="end">
		<text><tspan font-family="Arial" > 1000</tspan></text>
	</g>
</g>
<g fill="none" color="black" stroke="currentColor" stroke-width="1.00" stroke-linecap="butt" stroke-linejoin="miter">
	<path stroke='black'  d='M62.2,337.7 L71.2,337.7 M615.0,337.7 L606.0,337.7  '/>	<g transform="translate(53.9,341.6)" stroke="none" fill="black" font-family="Arial" font-size="12.00"  text-anchor="end">
		<text><tspan font-family="Arial" > 1200</tspan></text>
	</g>
</g>
<g fill="none" color="black" stroke="currentColor" stroke-width="1.00" stroke-linecap="butt" stroke-linejoin="miter">
	<path stroke='black'  d='M62.2,295.6 L71.2,295.6 M615.0,295.6 L606.0,295.6  '/>	<g transform="translate(53.9,299.5)" stroke="none" fill="black" font-family="Arial" font-size="12.00"  text-anchor="end">
		<text><tspan font-family="Arial" > 1400</tspan></text>
	</g>
</g>
<g fill="none" color="black" stroke="currentColor" stroke-width="1.00" stroke-linecap="butt" stroke-linejoin="miter">
	<path stroke='black'  d='M62.2,253.5 L71.2,253.5 M615.0,253.5 L606.0,253.5  '/>	<g transform="translate(53.9,257.4)" stroke="none" fill="black" font-family="Arial" font-size="12.00"  text-anchor="end">
		<text><tspan font-family="Arial" > 1600</tspan></text>
	</g>
</g>
<g fill="none" color="black" stroke="currentColor" stroke-width="1.00" stroke-linecap="butt" stroke-linejoin="miter">
	<path stroke='black'  d='M62.2,211.4 L71.2,211.4 M615.0,211.4 L606.0,211.4  '/>	<g transform="translate(53.9,215.3)" stroke="none" fill="black" font-family="Arial" font-size="12.00"  text-anchor="end">
		<text><tspan font-family="Arial" > 1800</tspan></text>
	</g>
</g>
<g fill="none" color="black" stroke="currentColor" stroke-width="1.00" stroke-linecap="butt" stroke-linejoin="miter">
	<path stroke='black'  d='M62.2,169.3 L71.2,169.3 M615.0,169.3 L606.0,169.3  '/>	<g transform="translate(53.9,173.2)" stroke="none" fill="black" font-family="Arial" font-size="12.00"  text-anchor="end">
		<text><tspan font-family="Arial" > 2000</tspan></text>
	</g>
</g>
<g fill="none" color="black" stroke="currentColor" stroke-width="1.00" stroke-linecap="butt" stroke-linejoin="miter">
	<path stroke='black'  d='M62.2,127.2 L71.2,127.2 M615.0,127.2 L606.0,127.2  '/>	<g transform="translate(53.9,131.1)" stroke="none" fill="black" font-family="Arial" font-size="12.00"  text-anchor="end">
		<text><tspan font-family="Arial" > 2200</tspan></text>
	</g>
</g>
<g fill="none" color="black" stroke="currentColor" stroke-width="1.00" stroke-linecap="butt" stroke-linejoin="miter">
	<path stroke='black'  d='M62.2,85.1 L71.2,85.1 M615.0,85.1 L606.0,85.1  '/>	<g transform="translate(53.9,89.0)" stroke="none" fill="black" font-family="Arial" font-size="12.00"  text-anchor="end">
		<text><tspan font-family="Arial" > 2400</tspan></text>
	</g>
</g>
<g fill="none" color="black" stroke="currentColor" stroke-width="1.00" stroke-linecap="butt" stroke-linejoin="miter">
	<path stroke='black'  d='M62.2,43.0 L71.2,43.0 M615.0,43.0 L606.0,43.0  '/>	<g transform="translate(53.9,46.9)" stroke="none" fill="black" font-family="Arial" font-size="12.00"  text-anchor="end">
		<text><tspan font-family="Arial" > 2600</tspan></text>
	</g>
</g>
<g fill="none" color="black" stroke="currentColor" stroke-width="1.00" stroke-linecap="butt" stroke-linejoin="miter">
	<path stroke='black'  d='M62.2,392.0 L62.2,383.0 M62.2,18.1 L62.2,27.1  '/>	<g transform="translate(62.2,413.9)" stroke="none" fill="black" font-family="Arial" font-size="12.00"  text-anchor="middle">
		<text><tspan font-family="Arial" > 0</tspan></text>
	</g>
</g>
<g fill="none" color="black" stroke="currentColor" stroke-width="1.00" stroke-linecap="butt" stroke-linejoin="miter">
	<path stroke='black'  d='M118.0,392.0 L118.0,383.0 M118.0,18.1 L118.0,27.1  '/>	<g transform="translate(118.0,413.9)" stroke="none" fill="black" font-family="Arial" font-size="12.00"  text-anchor="middle">
		<text><tspan font-family="Arial" > 10</tspan></text>
	</g>
</g>
<g fill="none" color="black" stroke="currentColor" stroke-width="1.00" stroke-linecap="butt" stroke-linejoin="miter">
	<path stroke='black'  d='M173.9,392.0 L173.9,383.0 M173.9,18.1 L173.9,27.1  '/>	<g transform="translate(173.9,413.9)" stroke="none" fill="black" font-family="Arial" font-size="12.00"  text-anchor="middle">
		<text><tspan font-family="Arial" > 20</tspan></text>
	</g>
</g>
<g fill="none" color="black" stroke="currentColor" stroke-width="1.00" stroke-linecap="butt" stroke-linejoin="miter">
	<path stroke='black'  d='M229.7,392.0 L229.7,383.0 M229.7,18.1 L229.7,27.1  '/>	<g transform="translate(229.7,413.9)" stroke="none" fill="black" font-family="Arial" font-size="12.00"  text-anchor="middle">
		<text><tspan font-family="Arial" > 30</tspan></text>
	</g>
</g>
<g fill="none" color="black" stroke="currentColor" stroke-width="1.00" stroke-linecap="butt" stroke-linejoin="miter">
	<path stroke='black'  d='M285.6,392.0 L285.6,383.0 M285.6,18.1 L285.6,27.1  '/>	<g transform="translate(285.6,413.9)" stroke="none" fill="black" font-family="Arial" font-size="12.00"  text-anchor="middle">
		<text><tspan font-family="Arial" > 40</tspan></text>
	</g>
</g>
<g fill="none" color="black" stroke="currentColor" stroke-width="1.00" stroke-linecap="butt" stroke-linejoin="miter">
	<path stroke='black'  d='M341.4,392.0 L341.4,383.0 M341.4,18.1 L341.4,27.1  '/>	<g transform="translate(341.4,413.9)" stroke="none" fill="black" font-family="Arial" font-size="12.00"  text-anchor="middle">
		<text><tspan font-family="Arial" > 50</tspan></text>
	</g>
</g>
<g fill="none" color="black" stroke="currentColor" stroke-width="1.00" stroke-linecap="butt" stroke-linejoin="miter">
	<path stroke='black'  d='M397.2,392.0 L397.2,383.0 M397.2,18.1 L397.2,27.1  '/>	<g transform="translate(397.2,413.9)" stroke="none" fill="black" font-family="Arial" font-size="12.00"  text-anchor="middle">
		<text><tspan font-family="Arial" > 60</tspan></text>
	</g>
</g>
<g fill="none" color="black" stroke="currentColor" stroke-width="1.00" stroke-linecap="butt" stroke-linejoin="miter">
	<path stroke='black'  d='M453.1,392.0 L453.1,383.0 M453.1,18.1 L453.1,27.1  '/>	<g transform="translate(453.1,413.9)" stroke="none" fill="black" font-family="Arial" font-size="12.00"  text-anchor="middle">
		<text><tspan font-family="Arial" > 70</tspan></text>
	</g>
</g>
<g fill="none" color="black" stroke="currentColor" stroke-width="1.00" stroke-linecap="butt" stroke-linejoin="miter">
	<path stroke='black'  d='M508.9,392.0 L508.9,383.0 M508.9,18.1 L508.9,27.1  '/>	<g transform="translate(508.9,413.9)" stroke="none" fill="black" font-family="Arial" font-size="12.00"  text-anchor="middle">
		<text><tspan font-family="Arial" > 80</tspan></text>
	</g>
</g>
<g fill="none" color="black" stroke="currentColor" stroke-width="1.00" stroke-linecap="butt" stroke-linejoin="miter">
	<path stroke='black'  d='M564.7,392.0 L564.7,383.0 M564.7,18.1 L564.7,27.1  '/>	<g transform="translate(564.7,413.9)" stroke="none" fill="black" font-family="Arial" font-size="12.00"  text-anchor="middle">
		<text><tspan font-family="Arial" > 90</tspan></text>
	</g>
</g>
<g fill="none" color="black" stroke="currentColor" stroke-width="1.00" stroke-linecap="butt" stroke-linejoin="miter">
</g>
<g fill="none" color="black" stroke="currentColor" stroke-width="1.00" stroke-linecap="butt" stroke-linejoin="miter">
	<path stroke='black'  d='M62.2,18.1 L62.2,392.0 L615.0,392.0 L615.0,18.1 L62.2,18.1 Z  '/></g>
<g fill="none" color="black" stroke="currentColor" stroke-width="1.00" stroke-linecap="butt" stroke-linejoin="miter">
</g>
	<g id="gnuplot_plot_1" ><title>pages+cached+noexternal+nofonts+nosvg+noimg+nocss</title>
<g fill="none" color="black" stroke="currentColor" stroke-width="1.00" stroke-linecap="butt" stroke-linejoin="miter">
	<g transform="translate(533.3,431.9)" stroke="none" fill="black" font-family="Arial" font-size="12.00"  text-anchor="end">
		<text><tspan font-family="Arial" >pages+cached+noexternal+nofonts+nosvg+noimg+nocss</tspan></text>
	</g>
</g>
<g fill="none" color="black" stroke="currentColor" stroke-width="1.00" stroke-linecap="butt" stroke-linejoin="miter">
	<path stroke='rgb(148,   0, 211)'  d='M541.6,428.0 L583.8,428.0 M62.2,25.3 L67.8,25.3 L73.4,25.3 L79.0,25.3 L84.5,25.3 L90.1,25.3
		L95.7,25.3 L101.3,25.3 L106.9,25.3 L112.5,25.3 L118.0,25.3 L123.6,25.3 L129.2,25.3 L134.8,25.3
		L140.4,25.3 L146.0,25.3 L151.5,25.3 L157.1,25.3 L162.7,25.3 L168.3,25.3 L173.9,25.3 L179.5,25.3
		L185.0,25.3 L190.6,25.3 L196.2,25.3 L201.8,25.3 L207.4,25.3 L213.0,25.3 L218.5,25.3 L224.1,25.3
		L229.7,25.3 L235.3,25.3 L240.9,25.3 L246.5,25.3 L252.1,25.3 L257.6,25.3 L263.2,25.3 L268.8,25.3
		L274.4,25.3 L280.0,25.3 L285.6,25.3 L291.1,25.3 L296.7,25.3 L302.3,25.3 L307.9,25.3 L313.5,25.3
		L319.1,25.3 L324.6,25.3 L330.2,25.3 L335.8,25.3 L341.4,25.3 L347.0,25.3 L352.6,25.3 L358.1,25.3
		L363.7,25.3 L369.3,25.3 L374.9,25.3 L380.5,25.3 L386.1,25.3 L391.6,25.3 L397.2,25.3 L402.8,25.3
		L408.4,25.3 L414.0,25.3 L419.6,25.3 L425.1,25.3 L430.7,25.3 L436.3,25.3 L441.9,25.3 L447.5,25.3
		L453.1,25.3 L458.7,25.3 L464.2,25.3 L469.8,25.3 L475.4,25.3 L481.0,25.3 L486.6,25.3 L492.2,25.3
		L497.7,25.3 L503.3,25.3 L508.9,25.3 L514.5,25.3 L520.1,25.3 L525.7,25.3 L531.2,25.3 L536.8,25.3
		L542.4,25.3 L548.0,25.3 L553.6,25.3 L559.2,25.3 L564.7,25.3 L570.3,25.3 L575.9,25.3 L581.5,25.3
		L587.1,25.3 L592.7,25.3 L598.2,25.3 L603.8,25.3 L609.4,25.3 L615.0,25.3  '/></g>
	</g>
	<g id="gnuplot_plot_2" ><title>pages+cached+noexternal+nofonts+nosvg+noimg+nocss+nojs</title>
<g fill="none" color="black" stroke="currentColor" stroke-width="1.00" stroke-linecap="butt" stroke-linejoin="miter">
	<g transform="translate(533.3,449.9)" stroke="none" fill="black" font-family="Arial" font-size="12.00"  text-anchor="end">
		<text><tspan font-family="Arial" >pages+cached+noexternal+nofonts+nosvg+noimg+nocss+nojs</tspan></text>
	</g>
</g>
<g fill="none" color="black" stroke="currentColor" stroke-width="1.00" stroke-linecap="butt" stroke-linejoin="miter">
	<path stroke='rgb(  0, 158, 115)'  d='M541.6,446.0 L583.8,446.0 M62.2,384.8 L67.8,384.8 L73.4,384.8 L79.0,384.8 L84.5,384.8 L90.1,384.8
		L95.7,384.8 L101.3,384.8 L106.9,384.8 L112.5,384.8 L118.0,384.8 L123.6,384.8 L129.2,384.8 L134.8,384.8
		L140.4,384.8 L146.0,384.8 L151.5,384.8 L157.1,384.8 L162.7,384.8 L168.3,384.8 L173.9,384.8 L179.5,384.8
		L185.0,384.8 L190.6,384.8 L196.2,384.8 L201.8,384.8 L207.4,384.8 L213.0,384.8 L218.5,384.8 L224.1,384.8
		L229.7,384.8 L235.3,384.8 L240.9,384.8 L246.5,384.8 L252.1,384.8 L257.6,384.8 L263.2,384.8 L268.8,384.8
		L274.4,384.8 L280.0,384.8 L285.6,384.8 L291.1,384.8 L296.7,384.8 L302.3,384.8 L307.9,384.8 L313.5,384.8
		L319.1,384.8 L324.6,384.8 L330.2,384.8 L335.8,384.8 L341.4,384.8 L347.0,384.8 L352.6,384.8 L358.1,384.8
		L363.7,384.8 L369.3,384.8 L374.9,384.8 L380.5,384.8 L386.1,384.8 L391.6,384.8 L397.2,384.8 L402.8,384.8
		L408.4,384.8 L414.0,384.8 L419.6,384.8 L425.1,384.8 L430.7,384.8 L436.3,384.8 L441.9,384.8 L447.5,384.8
		L453.1,384.8 L458.7,384.8 L464.2,384.8 L469.8,384.8 L475.4,384.8 L481.0,384.8 L486.6,384.8 L492.2,384.8
		L497.7,384.8 L503.3,384.8 L508.9,384.8 L514.5,384.8 L520.1,384.8 L525.7,384.8 L531.2,384.8 L536.8,384.8
		L542.4,384.8 L548.0,384.8 L553.6,384.8 L559.2,384.8 L564.7,384.8 L570.3,384.8 L575.9,384.8 L581.5,384.8
		L587.1,384.8 L592.7,384.8 L598.2,384.8 L603.8,384.8 L609.4,384.8 L615.0,384.8  '/></g>
	</g>
	<g id="gnuplot_plot_3" ><title>score p10=28672</title>
<g fill="none" color="black" stroke="currentColor" stroke-width="1.00" stroke-linecap="butt" stroke-linejoin="miter">
	<g transform="translate(533.3,467.9)" stroke="none" fill="black" font-family="Arial" font-size="12.00"  text-anchor="end">
		<text><tspan font-family="Arial" >score p10=28672</tspan></text>
	</g>
</g>
<g fill="none" color="black" stroke="currentColor" stroke-width="1.00" stroke-linecap="butt" stroke-linejoin="miter">
	<path stroke='rgb( 86, 180, 233)'  d='M541.6,464.0 L583.8,464.0  '/></g>
	</g>
	<g id="gnuplot_plot_4" ><title>score median=131072</title>
<g fill="none" color="black" stroke="currentColor" stroke-width="1.00" stroke-linecap="butt" stroke-linejoin="miter">
	<g transform="translate(533.3,485.9)" stroke="none" fill="black" font-family="Arial" font-size="12.00"  text-anchor="end">
		<text><tspan font-family="Arial" >score median=131072</tspan></text>
	</g>
</g>
<g fill="none" color="black" stroke="currentColor" stroke-width="1.00" stroke-linecap="butt" stroke-linejoin="miter">
	<path stroke='rgb(230, 159,   0)'  d='M541.6,482.0 L583.8,482.0  '/></g>
	</g>
<g fill="none" color="#FFFFFF" stroke="rgb(230, 159,   0)" stroke-width="2.00" stroke-linecap="butt" stroke-linejoin="miter">
</g>
<g fill="none" color="black" stroke="currentColor" stroke-width="2.00" stroke-linecap="butt" stroke-linejoin="miter">
</g>
<g fill="none" color="black" stroke="black" stroke-width="1.00" stroke-linecap="butt" stroke-linejoin="miter">
</g>
<g fill="none" color="black" stroke="currentColor" stroke-width="1.00" stroke-linecap="butt" stroke-linejoin="miter">
	<path stroke='black'  d='M62.2,18.1 L62.2,392.0 L615.0,392.0 L615.0,18.1 L62.2,18.1 Z  '/></g>
<g fill="none" color="black" stroke="currentColor" stroke-width="1.00" stroke-linecap="butt" stroke-linejoin="miter">
</g>
</g>
</svg>
